src/icons/sonarcloud.svg

<svg viewBox="0 0 24 24" xmlns="http://www.w3.org/2000/svg">
  <path
    d="m11.985 2.949c-3.2686 0-5.9088 2.7452-5.936 6.12-2.3319 0.83443-4.0218 3.1163-4.0218 5.8127 0 3.3925 2.6631 6.1693 5.9474 6.1693 1.5132-0.003403 2.943-0.6249 4.0256-1.6751 1.0808 1.0518 2.5127 1.6727 4.0256 1.6751 3.2785 0 5.9474-2.7703 5.9474-6.1693v-0.0019c-6.72e-4 -1.1445-0.31399-2.2598-0.89163-3.2364-0.43494-0.63473-0.89673-1.1072-1.1914-1.3792-0.03146-0.02904-0.06176-0.05715-0.08917-0.08158-0.0726-0.06472-0.12511-0.10921-0.16315-0.14038-0.0062-0.0051-0.0127-0.01-0.01897-0.01512-0.02477-0.02009-0.03794-0.030351-0.03794-0.030351-0.49867-0.4025-1.054-0.72857-1.6656-0.9448-0.03656-3.3603-2.6689-6.1029-5.9303-6.1029zm0.0075 1.9369c2.2414 0 4.0712 1.8943 4.0712 4.2381v0.0019c0.0042 1.3595-0.63161 2.6416-1.7169 3.4603h-0.0019c-0.41157 0.31483-0.50789 0.90024-0.21816 1.3299l0.0019 0.0019c0.17897 0.26164 0.46963 0.40977 0.76643 0.40977 0.19723 0 0.38858-0.06378 0.54636-0.18212 1.0392-0.77896 1.7681-1.8817 2.1589-3.115 1.4673 0.65696 2.5099 2.1367 2.5099 3.8549-0.0054 2.3372-1.8354 4.2343-4.0844 4.2343-2.2407 0-4.0701-1.8952-4.0712-4.2381v-0.0019c0.0071-0.52028-0.41104-0.95235-0.93147-0.96372h-0.0076c-0.52309 8e-3 -0.94525 0.44279-0.93527 0.96562v0.0019c6.51e-4 1.0806 0.31644 2.077 0.78729 2.9614-0.75007 0.80468-1.7901 1.2782-2.8931 1.2805-2.2422 0-4.075-1.8972-4.075-4.24 0-2.342 1.8328-4.2381 4.075-4.2381 0.48612 0 0.95676 0.08885 1.4114 0.258 0.00347 0.0015 0.00265 0.0018 0.00758 0.0038 0.00381 0.0015 0.010377 0.0022 0.015176 0.0038l0.00569 0.0019 0.00758 0.0038c0.069332 0.02507 0.15396 0.06137 0.22955 0.09864 0.080488 0.03969 0.15665 0.09009 0.15556 0.08917 0.3871 0.34835 0.9956 0.29796 1.3204-0.11003 0.32904-0.40265 0.28467-0.999-0.10244-1.3469l-0.0019-0.0019c-0.36238-0.31808-0.86428-0.50421-0.99396-0.55208h-0.0019c-0.65367-0.24772-1.3479-0.37457-2.047-0.37373h-0.00949c0.20531-2.1496 1.9091-3.8359 4.0218-3.8359z"
    color="#000000"
    fill="#ef6c00"
  />
</svg>

<svg viewBox="0 0 24 24" xmlns="http://www.w3.org/2000/svg">
  <path
    d="M11.9851 2.94897C8.71654 2.94897 6.07634 5.69418 6.04914 9.06897C3.71724 9.9034 2.02734 12.1853 2.02734 14.8817C2.02734 18.2742 4.69044 21.051 7.97474 21.051C9.48794 21.0476 10.9177 20.4261 12.0003 19.3759C13.0811 20.4277 14.513 21.0486 16.0259 21.051C19.3044 21.051 21.9733 18.2807 21.9733 14.8817V14.8798C21.9727 13.7353 21.6594 12.62 21.0817 11.6434C20.6468 11.0086 20.185 10.5362 19.8903 10.2642C19.8589 10.2351 19.8286 10.207 19.8011 10.1826C19.7285 10.1179 19.676 10.0734 19.638 10.0422C19.6318 10.0371 19.6253 10.0322 19.619 10.0271C19.5943 10.007 19.5811 9.99674 19.5811 9.99674C19.0824 9.59424 18.5271 9.26817 17.9155 9.05194C17.8789 5.69164 15.2465 2.94897 11.9851 2.94897ZM11.9926 4.88587C14.234 4.88587 16.0638 6.78017 16.0638 9.12397V9.12587C16.068 10.4854 15.4322 11.7675 14.3469 12.5862H14.345C13.9335 12.901 13.8372 13.4864 14.1269 13.9161L14.1288 13.918C14.3078 14.1796 14.5984 14.3277 14.8952 14.3277C15.0924 14.3277 15.2838 14.264 15.4416 14.1456C16.4808 13.3667 17.2097 12.2639 17.6005 11.0306C19.0678 11.6876 20.1104 13.1673 20.1104 14.8855C20.105 17.2227 18.275 19.1198 16.026 19.1198C13.7853 19.1198 11.9559 17.2246 11.9548 14.8817V14.8798C11.9619 14.3595 11.5437 13.9275 11.0233 13.9161H11.0157C10.4926 13.9241 10.0705 14.3589 10.0804 14.8817V14.8836C10.0811 15.9642 10.3969 16.9606 10.8677 17.845C10.1177 18.6497 9.07762 19.1232 7.97462 19.1255C5.73242 19.1255 3.89962 17.2283 3.89962 14.8855C3.89962 12.5435 5.73242 10.6474 7.97462 10.6474C8.46074 10.6474 8.93138 10.7363 9.38602 10.9054C9.38949 10.9069 9.38867 10.9072 9.3936 10.9092C9.39741 10.9107 9.40398 10.9114 9.40878 10.913L9.41447 10.9149L9.42205 10.9187C9.49138 10.9438 9.57601 10.9801 9.6516 11.0174C9.73209 11.0571 9.80825 11.1075 9.80716 11.1065C10.1943 11.4549 10.8028 11.4045 11.1276 10.9965C11.4566 10.5939 11.4122 9.9975 11.0251 9.6496L11.0232 9.6477C10.6608 9.32962 10.1589 9.14349 10.0293 9.09562H10.0274C9.37369 8.8479 8.67946 8.72105 7.98036 8.72189H7.97087C8.17618 6.57229 9.87994 4.88587 11.9926 4.88587Z"
    fill="#EF6C00"
  />
</svg>
